build/img/favicons/icon.svg

<svg width="55" height="55" viewBox="0 0 55 55" fill="none" xmlns="http://www.w3.org/2000/svg">
<path d="M33.9167 14.6664C35.1102 14.6664 36.1185 15.4355 36.498 16.4997H46.002C46.3815 15.4355 47.3899 14.6664 48.5834 14.6664C50.0995 14.6664 51.3334 15.9002 51.3334 17.4164C51.3334 18.9325 50.0995 20.1663 48.5834 20.1663C47.3899 20.1663 46.3815 19.3973 46.002 18.333H36.4971C36.1176 19.3973 35.1093 20.1663 33.9158 20.1663C32.3996 20.1663 31.1658 18.9325 31.1658 17.4164C31.1658 15.9002 32.4005 14.6664 33.9167 14.6664ZM48.5834 18.333C49.0884 18.333 49.5 17.9224 49.5 17.4164C49.5 16.9104 49.0884 16.4997 48.5834 16.4997C48.0783 16.4997 47.6667 16.9104 47.6667 17.4164C47.6667 17.9224 48.0783 18.333 48.5834 18.333ZM33.9167 18.333C34.4218 18.333 34.8334 17.9224 34.8334 17.4164C34.8334 16.9104 34.4218 16.4997 33.9167 16.4997C33.4116 16.4997 33 16.9104 33 17.4164C33 17.9224 33.4116 18.333 33.9167 18.333Z" fill="#00B2FF"/>
<path d="M26.5834 20.335V14.6664C26.5834 14.4226 26.6796 14.1898 26.8519 14.0184L30.5186 10.3517C30.69 10.1794 30.9238 10.0832 31.1667 10.0832H34.0854C34.4649 9.01893 35.4732 8.24986 36.6667 8.24986C38.1829 8.24986 39.4167 9.48368 39.4167 10.9998C39.4167 12.516 38.1829 13.7498 36.6667 13.7498C35.4732 13.7498 34.4649 12.9807 34.0854 11.9165H31.5462L28.4167 15.0459V20.335C29.4809 20.7145 30.25 21.7228 30.25 22.9163C30.25 24.4324 29.0162 25.6662 27.5 25.6662C25.9839 25.6662 24.75 24.4324 24.75 22.9163C24.75 21.7228 25.5191 20.7145 26.5834 20.335ZM36.6667 11.9165C37.1718 11.9165 37.5834 11.5058 37.5834 10.9998C37.5834 10.4938 37.1718 10.0832 36.6667 10.0832C36.1616 10.0832 35.75 10.4938 35.75 10.9998C35.75 11.5058 36.1616 11.9165 36.6667 11.9165ZM27.5 23.8329C28.0051 23.8329 28.4167 23.4223 28.4167 22.9163C28.4167 22.4103 28.0051 21.9996 27.5 21.9996C26.9949 21.9996 26.5834 22.4103 26.5834 22.9163C26.5834 23.4223 26.9949 23.8329 27.5 23.8329Z" fill="#00B2FF"/>
<path d="M10.0833 23.8329C10.5068 23.8329 10.9028 23.9365 11.2613 24.1089L12.8333 22.5368V13.7498C12.8333 13.5059 12.9296 13.2731 13.1019 13.1017L22.2759 3.92785C22.1036 3.56944 22 3.17345 22 2.74995C22 1.23381 23.2338 0 24.75 0C26.2662 0 27.5 1.23381 27.5 2.74995C27.5 4.2661 26.2662 5.49991 24.75 5.49991C24.3265 5.49991 23.9305 5.39633 23.5721 5.224L14.6667 14.1293V22.9163C14.6667 23.1601 14.5704 23.3929 14.3981 23.5644L12.5574 25.405C12.7298 25.7634 12.8333 26.1594 12.8333 26.5829C12.8333 28.099 11.5995 29.3328 10.0833 29.3328C8.56717 29.3328 7.33334 28.099 7.33334 26.5829C7.33334 25.0667 8.56717 23.8329 10.0833 23.8329ZM24.75 3.66661C25.2551 3.66661 25.6667 3.25595 25.6667 2.74995C25.6667 2.24396 25.2551 1.8333 24.75 1.8333C24.2449 1.8333 23.8333 2.24396 23.8333 2.74995C23.8333 3.25595 24.2449 3.66661 24.75 3.66661ZM10.0833 27.4995C10.5884 27.4995 11 27.0889 11 26.5829C11 26.0769 10.5884 25.6662 10.0833 25.6662C9.57826 25.6662 9.16668 26.0769 9.16668 26.5829C9.16668 27.0889 9.57826 27.4995 10.0833 27.4995Z" fill="#00B2FF"/>
<path d="M1.83336 13.0018V9.16651C1.83336 8.92268 1.92961 8.68986 2.10195 8.51844L8.51861 2.10188C8.69003 1.92955 8.92378 1.8333 9.1667 1.8333H13.9187C14.2982 0.769071 15.3065 0 16.5 0C18.0162 0 19.25 1.23381 19.25 2.74995C19.25 4.2661 18.0162 5.49991 16.5 5.49991C15.3065 5.49991 14.2982 4.73084 13.9187 3.66661H9.5462L3.6667 9.54601V13.0018C4.73095 13.3813 5.50003 14.3896 5.50003 15.5831C5.50003 17.0992 4.2662 18.333 2.75003 18.333C1.23386 18.333 3.05176e-05 17.0992 3.05176e-05 15.5831C3.05176e-05 14.3896 0.769114 13.3813 1.83336 13.0018ZM16.5 3.66661C17.0051 3.66661 17.4167 3.25595 17.4167 2.74995C17.4167 2.24396 17.0051 1.8333 16.5 1.8333C15.9949 1.8333 15.5834 2.24396 15.5834 2.74995C15.5834 3.25595 15.9949 3.66661 16.5 3.66661ZM2.75003 16.4997C3.25511 16.4997 3.6667 16.0891 3.6667 15.5831C3.6667 15.0771 3.25511 14.6664 2.75003 14.6664C2.24495 14.6664 1.83336 15.0771 1.83336 15.5831C1.83336 16.0891 2.24495 16.4997 2.75003 16.4997Z" fill="#00B2FF"/>
<path d="M14.6658 49.6688V36.4974C13.6024 36.1179 12.8334 35.1096 12.8334 33.9161C12.8334 32.4 14.0672 31.1662 15.5834 31.1662C16.7769 31.1662 17.7852 31.9352 18.1647 32.9995H27.6687C28.0482 31.9352 29.0565 31.1662 30.25 31.1662C31.4435 31.1662 32.4519 31.9352 32.8314 32.9995H38.1205L41.5259 29.5941C41.3536 29.2357 41.25 28.8397 41.25 28.4162C41.25 26.9001 42.4839 25.6663 44 25.6663C45.5162 25.6663 46.75 26.9001 46.75 28.4162C46.75 29.9324 45.5162 31.1662 44 31.1662C43.5765 31.1662 43.1805 31.0626 42.8221 30.8903L39.1481 34.5642C38.9767 34.7365 38.7429 34.8328 38.5 34.8328H32.8314C32.4519 35.897 31.4435 36.6661 30.25 36.6661C29.0565 36.6661 28.0482 35.897 27.6687 34.8328H18.1638C17.8869 35.6092 17.2755 36.2206 16.4991 36.4974V49.6688C17.5634 50.0483 18.3324 51.0566 18.3324 52.2501C18.3324 53.7662 17.0986 55 15.5824 55C14.0663 55 12.8324 53.7662 12.8324 52.2501C12.8324 51.0566 13.6015 50.0483 14.6658 49.6688ZM44 29.3329C44.5051 29.3329 44.9167 28.9222 44.9167 28.4162C44.9167 27.9102 44.5051 27.4996 44 27.4996C43.4949 27.4996 43.0834 27.9102 43.0834 28.4162C43.0834 28.9222 43.4949 29.3329 44 29.3329ZM30.25 34.8328C30.7551 34.8328 31.1667 34.4221 31.1667 33.9161C31.1667 33.4101 30.7551 32.9995 30.25 32.9995C29.7449 32.9995 29.3334 33.4101 29.3334 33.9161C29.3334 34.4221 29.7449 34.8328 30.25 34.8328ZM15.5834 53.1658C16.0884 53.1658 16.5 52.7551 16.5 52.2492C16.5 51.7432 16.0884 51.3325 15.5834 51.3325C15.0783 51.3325 14.6667 51.7432 14.6667 52.2492C14.6667 52.7551 15.0783 53.1658 15.5834 53.1658ZM15.5834 34.8328C16.0884 34.8328 16.5 34.4221 16.5 33.9161C16.5 33.4101 16.0884 32.9995 15.5834 32.9995C15.0783 32.9995 14.6667 33.4101 14.6667 33.9161C14.6667 34.4221 15.0783 34.8328 15.5834 34.8328Z" fill="#00B2FF"/>
<path d="M19.25 18.5017V15.5831C19.25 15.3392 19.3463 15.1064 19.5186 14.935L30.5259 3.92785C30.3536 3.56944 30.25 3.17345 30.25 2.74995C30.25 1.23381 31.4838 0 33 0C34.1935 0 35.2018 0.769071 35.5813 1.8333H39.4167C39.9227 1.8333 40.3333 2.24305 40.3333 2.74995V5.12041L43.7388 8.52577C44.0972 8.35344 44.4932 8.24986 44.9167 8.24986C46.4328 8.24986 47.6667 9.48368 47.6667 10.9998C47.6667 12.516 46.4328 13.7498 44.9167 13.7498C43.4005 13.7498 42.1667 12.516 42.1667 10.9998C42.1667 10.5763 42.2703 10.1803 42.4426 9.82192L38.7686 6.14798C38.5963 5.97657 38.5 5.74374 38.5 5.49991V3.66661H35.5813C35.2018 4.73084 34.1935 5.49991 33 5.49991C32.5765 5.49991 32.1805 5.39633 31.8221 5.224L21.0833 15.9626V18.5017C22.1476 18.8812 22.9167 19.8895 22.9167 21.083C22.9167 22.5991 21.6828 23.8329 20.1667 23.8329C18.6505 23.8329 17.4167 22.5991 17.4167 21.083C17.4167 19.8895 18.1858 18.8812 19.25 18.5017ZM44.9167 11.9165C45.4218 11.9165 45.8333 11.5058 45.8333 10.9998C45.8333 10.4938 45.4218 10.0832 44.9167 10.0832C44.4116 10.0832 44 10.4938 44 10.9998C44 11.5058 44.4116 11.9165 44.9167 11.9165ZM33 3.66661C33.5051 3.66661 33.9167 3.25595 33.9167 2.74995C33.9167 2.24396 33.5051 1.8333 33 1.8333C32.4949 1.8333 32.0833 2.24396 32.0833 2.74995C32.0833 3.25595 32.4949 3.66661 33 3.66661ZM20.1667 21.9996C20.6718 21.9996 21.0833 21.589 21.0833 21.083C21.0833 20.577 20.6718 20.1663 20.1667 20.1663C19.6616 20.1663 19.25 20.577 19.25 21.083C19.25 21.589 19.6616 21.9996 20.1667 21.9996Z" fill="#00B2FF"/>
<path d="M22 25.6662C23.1935 25.6662 24.2018 26.4353 24.5813 27.4995H35.3705L40.6019 22.2682C40.7733 22.0959 41.0071 21.9996 41.25 21.9996H50.9538L53.1667 19.7868V12.296L46.0946 5.224C45.7362 5.39633 45.3402 5.49991 44.9167 5.49991C43.4005 5.49991 42.1667 4.2661 42.1667 2.74995C42.1667 1.23381 43.4005 0 44.9167 0C46.4328 0 47.6667 1.23381 47.6667 2.74995C47.6667 3.17345 47.5631 3.56944 47.3907 3.92785L54.7314 11.2684C54.9037 11.4398 55 11.6726 55 11.9165V20.1663C55 20.4102 54.9037 20.643 54.7314 20.8144L51.9814 23.5644C51.81 23.7367 51.5762 23.8329 51.3333 23.8329H41.6295L36.3981 29.0643C36.2267 29.2366 35.9929 29.3328 35.75 29.3328H24.5813C24.2018 30.3971 23.1935 31.1661 22 31.1661C20.4838 31.1661 19.25 29.9323 19.25 28.4162C19.25 26.9001 20.4838 25.6662 22 25.6662ZM44.9167 1.8333C44.4116 1.8333 44 2.24396 44 2.74995C44 3.25595 44.4116 3.66661 44.9167 3.66661C45.4217 3.66661 45.8333 3.25595 45.8333 2.74995C45.8333 2.24396 45.4217 1.8333 44.9167 1.8333ZM22 29.3328C22.5051 29.3328 22.9167 28.9222 22.9167 28.4162C22.9167 27.9102 22.5051 27.4995 22 27.4995C21.4949 27.4995 21.0833 27.9102 21.0833 28.4162C21.0833 28.9222 21.4949 29.3328 22 29.3328Z" fill="#00B2FF"/>
<path d="M2.75001 21.9996C3.17351 21.9996 3.56951 22.1032 3.92793 22.2755L7.33334 18.8702V13.5811C6.26909 13.2016 5.50001 12.1933 5.50001 10.9998C5.50001 9.48368 6.73384 8.24986 8.25001 8.24986C9.76618 8.24986 11 9.48368 11 10.9998C11 12.1933 10.2309 13.2016 9.16668 13.5811V19.2497C9.16668 19.4935 9.07043 19.7263 8.89809 19.8978L5.2241 23.5717C5.39643 23.9301 5.50001 24.3261 5.50001 24.7496C5.50001 25.9431 4.73093 26.9514 3.66668 27.3309V28.0367L10.7314 35.1013C10.9038 35.2727 11 35.5056 11 35.7494V36.8347C12.0643 37.2142 12.8333 38.2225 12.8333 39.416C12.8333 40.6095 12.0643 41.6178 11 41.9973V44.1688C12.0643 44.5483 12.8333 45.5567 12.8333 46.7501C12.8333 48.2663 11.5995 49.5001 10.0833 49.5001C8.56718 49.5001 7.33334 48.2663 7.33334 46.7501C7.33334 45.5567 8.10243 44.5483 9.16668 44.1688V41.9973C8.10243 41.6178 7.33334 40.6095 7.33334 39.416C7.33334 38.2225 8.10243 37.2142 9.16668 36.8347V36.1289L2.10193 29.0643C1.92959 28.8929 1.83334 28.66 1.83334 28.4162V27.3309C0.769094 26.9514 1.14441e-05 25.9431 1.14441e-05 24.7496C1.14441e-05 23.2334 1.23384 21.9996 2.75001 21.9996ZM8.25001 11.9165C8.75509 11.9165 9.16668 11.5058 9.16668 10.9998C9.16668 10.4938 8.75509 10.0832 8.25001 10.0832C7.74493 10.0832 7.33334 10.4938 7.33334 10.9998C7.33334 11.5058 7.74493 11.9165 8.25001 11.9165ZM10.0833 47.6659C10.5884 47.6659 11 47.2552 11 46.7492C11 46.2432 10.5884 45.8326 10.0833 45.8326C9.57826 45.8326 9.16668 46.2432 9.16668 46.7492C9.16668 47.2552 9.57826 47.6659 10.0833 47.6659ZM10.0833 40.3327C10.5884 40.3327 11 39.922 11 39.416C11 38.91 10.5884 38.4994 10.0833 38.4994C9.57826 38.4994 9.16668 38.91 9.16668 39.416C9.16668 39.922 9.57826 40.3327 10.0833 40.3327ZM2.75001 25.6662C3.25509 25.6662 3.66668 25.2556 3.66668 24.7496C3.66668 24.2436 3.25509 23.8329 2.75001 23.8329C2.24493 23.8329 1.83334 24.2436 1.83334 24.7496C1.83334 25.2556 2.24493 25.6662 2.75001 25.6662Z" fill="#00B2FF"/>
</svg>

<svg width="55" height="55" fill="none" xmlns="http://www.w3.org/2000/svg"><path d="M33.917 14.666c1.193 0 2.201.77 2.581 1.834h9.504a2.746 2.746 0 0 1 2.581-1.834 2.753 2.753 0 0 1 2.75 2.75 2.753 2.753 0 0 1-2.75 2.75 2.746 2.746 0 0 1-2.581-1.833h-9.505a2.746 2.746 0 0 1-2.581 1.833 2.753 2.753 0 0 1-2.75-2.75 2.754 2.754 0 0 1 2.75-2.75Zm14.666 3.667a.918.918 0 0 0 0-1.833.918.918 0 0 0 0 1.833Zm-14.666 0a.918.918 0 0 0 0-1.833.918.918 0 0 0 0 1.833Z" fill="#00B2FF"/><path d="M26.583 20.335v-5.669c0-.243.097-.476.269-.648l3.667-3.666a.914.914 0 0 1 .648-.269h2.918a2.746 2.746 0 0 1 2.582-1.833 2.753 2.753 0 0 1 2.75 2.75 2.753 2.753 0 0 1-2.75 2.75 2.746 2.746 0 0 1-2.582-1.834h-2.539l-3.13 3.13v5.289a2.746 2.746 0 0 1 1.834 2.581 2.753 2.753 0 0 1-2.75 2.75 2.753 2.753 0 0 1-2.75-2.75c0-1.193.77-2.201 1.833-2.581Zm10.084-8.419a.918.918 0 0 0 0-1.833.918.918 0 0 0 0 1.833ZM27.5 23.834a.918.918 0 0 0 0-1.833.918.918 0 0 0 0 1.833ZM10.083 23.833c.424 0 .82.104 1.178.276l1.572-1.572V13.75c0-.244.097-.477.269-.648l9.174-9.174A2.705 2.705 0 0 1 22 2.75 2.753 2.753 0 0 1 24.75 0a2.753 2.753 0 0 1 2.75 2.75 2.753 2.753 0 0 1-2.75 2.75c-.424 0-.82-.104-1.178-.276l-8.905 8.905v8.787a.913.913 0 0 1-.269.648l-1.84 1.841c.172.358.275.754.275 1.178a2.753 2.753 0 0 1-2.75 2.75 2.753 2.753 0 0 1-2.75-2.75 2.753 2.753 0 0 1 2.75-2.75ZM24.75 3.667a.918.918 0 0 0 0-1.834.918.918 0 0 0 0 1.834ZM10.083 27.5a.918.918 0 0 0 0-1.834.918.918 0 0 0 0 1.834ZM1.833 13.002V9.167c0-.244.097-.477.269-.649l6.417-6.416a.914.914 0 0 1 .648-.269h4.752A2.746 2.746 0 0 1 16.5 0a2.753 2.753 0 0 1 2.75 2.75A2.753 2.753 0 0 1 16.5 5.5a2.746 2.746 0 0 1-2.581-1.833H9.546l-5.88 5.879v3.456A2.746 2.746 0 0 1 5.5 15.583a2.753 2.753 0 0 1-2.75 2.75A2.753 2.753 0 0 1 0 15.583c0-1.193.77-2.202 1.833-2.581ZM16.5 3.667a.918.918 0 0 0 0-1.834.918.918 0 0 0 0 1.834ZM2.75 16.5a.918.918 0 0 0 0-1.834.918.918 0 0 0 0 1.834ZM14.666 49.669V36.497a2.747 2.747 0 0 1-1.833-2.58 2.753 2.753 0 0 1 2.75-2.75c1.194 0 2.202.768 2.582 1.832h9.504a2.746 2.746 0 0 1 2.581-1.833c1.194 0 2.202.77 2.581 1.833h5.29l3.405-3.405a2.705 2.705 0 0 1-.276-1.178 2.753 2.753 0 0 1 2.75-2.75 2.753 2.753 0 0 1 2.75 2.75 2.753 2.753 0 0 1-2.75 2.75c-.423 0-.82-.103-1.178-.276l-3.674 3.674a.914.914 0 0 1-.648.269h-5.669a2.746 2.746 0 0 1-2.581 1.833 2.746 2.746 0 0 1-2.581-1.833h-9.505a2.747 2.747 0 0 1-1.665 1.664V49.67a2.746 2.746 0 0 1 1.833 2.581 2.753 2.753 0 0 1-2.75 2.75 2.753 2.753 0 0 1-2.75-2.75c0-1.193.77-2.202 1.834-2.581ZM44 29.333a.918.918 0 0 0 0-1.833.917.917 0 0 0 0 1.833Zm-13.75 5.5a.918.918 0 0 0 0-1.834.917.917 0 0 0 0 1.834ZM15.583 53.166a.918.918 0 0 0 0-1.833.918.918 0 0 0 0 1.833Zm0-18.333a.918.918 0 0 0 0-1.834.918.918 0 0 0 0 1.834Z" fill="#00B2FF"/><path d="M19.25 18.502v-2.919c0-.244.096-.477.269-.648L30.526 3.928a2.705 2.705 0 0 1-.276-1.178A2.753 2.753 0 0 1 33 0c1.194 0 2.202.77 2.581 1.833h3.836c.506 0 .916.41.916.917v2.37l3.406 3.406a2.705 2.705 0 0 1 1.178-.276 2.753 2.753 0 0 1 2.75 2.75 2.753 2.753 0 0 1-2.75 2.75 2.753 2.753 0 0 1-2.75-2.75c0-.424.103-.82.276-1.178l-3.674-3.674A.913.913 0 0 1 38.5 5.5V3.667h-2.919A2.746 2.746 0 0 1 33 5.5c-.423 0-.82-.104-1.178-.276L21.083 15.963v2.539a2.746 2.746 0 0 1 1.834 2.581 2.753 2.753 0 0 1-2.75 2.75 2.753 2.753 0 0 1-2.75-2.75c0-1.193.769-2.202 1.833-2.581Zm25.667-6.585a.918.918 0 0 0 0-1.834.918.918 0 0 0 0 1.833ZM33 3.666a.918.918 0 0 0 0-1.834.918.918 0 0 0 0 1.834ZM20.167 22a.917.917 0 1 0-.002-1.835.917.917 0 0 0 .002 1.835Z" fill="#00B2FF"/><path d="M22 25.666c1.194 0 2.202.77 2.581 1.834h10.79l5.23-5.232A.914.914 0 0 1 41.25 22h9.704l2.213-2.213v-7.491l-7.072-7.072a2.705 2.705 0 0 1-1.178.276 2.753 2.753 0 0 1-2.75-2.75A2.753 2.753 0 0 1 44.917 0a2.753 2.753 0 0 1 2.75 2.75c0 .423-.104.82-.276 1.178l7.34 7.34a.913.913 0 0 1 .269.648v8.25a.913.913 0 0 1-.269.648l-2.75 2.75a.914.914 0 0 1-.648.269H41.63l-5.232 5.231a.914.914 0 0 1-.648.269H24.581A2.746 2.746 0 0 1 22 31.166a2.753 2.753 0 0 1-2.75-2.75 2.753 2.753 0 0 1 2.75-2.75ZM44.917 1.833a.918.918 0 0 0 0 1.834.918.918 0 0 0 0-1.834ZM22 29.333a.918.918 0 0 0 0-1.833.918.918 0 0 0 0 1.833ZM2.75 22c.424 0 .82.103 1.178.276l3.405-3.406v-5.289A2.746 2.746 0 0 1 5.5 11a2.753 2.753 0 0 1 2.75-2.75A2.753 2.753 0 0 1 11 11c0 1.193-.77 2.202-1.833 2.581v5.669a.913.913 0 0 1-.269.648l-3.674 3.674c.172.358.276.754.276 1.178 0 1.193-.77 2.201-1.833 2.58v.707L10.73 35.1a.912.912 0 0 1 .269.648v1.086a2.746 2.746 0 0 1 1.833 2.581A2.746 2.746 0 0 1 11 41.997v2.172a2.746 2.746 0 0 1 1.833 2.581 2.753 2.753 0 0 1-2.75 2.75 2.753 2.753 0 0 1-2.75-2.75c0-1.193.77-2.202 1.834-2.581v-2.172a2.746 2.746 0 0 1-1.834-2.581c0-1.194.77-2.202 1.834-2.581v-.706l-7.065-7.065a.913.913 0 0 1-.269-.648v-1.085A2.746 2.746 0 0 1 0 24.75 2.753 2.753 0 0 1 2.75 22Zm5.5-10.084a.918.918 0 0 0 0-1.833.918.918 0 0 0 0 1.833Zm1.833 35.75a.918.918 0 0 0 0-1.833.918.918 0 0 0 0 1.833Zm0-7.333a.918.918 0 0 0 0-1.834.918.918 0 0 0 0 1.834ZM2.75 25.666a.918.918 0 0 0 0-1.833.918.918 0 0 0 0 1.833Z" fill="#00B2FF"/></svg>
